img/iconmonstr-speech-bubble-5.svg

<svg xmlns="http://www.w3.org/2000/svg" width="24" height="24" viewBox="0 0 24 24"><path d="M12 1c-6.338 0-12 4.226-12 10.007 0 2.05.738 4.063 2.047 5.625.055 1.83-1.023 4.456-1.993 6.368 2.602-.47 6.301-1.508 7.978-2.536 9.236 2.247 15.968-3.405 15.968-9.457 0-5.812-5.701-10.007-12-10.007zm0 14h-6v-1h6v1zm6-3h-12v-1h12v1zm0-3h-12v-1h12v1z"/></svg>

<svg width="24" height="24" viewBox="0 0 24 24" fill="none" xmlns="http://www.w3.org/2000/svg">
<path d="M12 1C5.662 1 0 5.226 0 11.007C0 13.057 0.738 15.07 2.047 16.632C2.102 18.462 1.024 21.088 0.054 23C2.656 22.53 6.355 21.492 8.032 20.464C17.268 22.711 24 17.059 24 11.007C24 5.195 18.299 1 12 1ZM12 15H6V14H12V15ZM18 12H6V11H18V12ZM18 9H6V8H18V9Z" fill="#E6E6E6"/>
</svg>
